X:1
T:12 New Songs by some of the best and best-known British composers
T:Robin Sly
T:To H.R.H. The Princess Louise (Marchioness of Lorne) 
T:12 New Songs
T:Alexander Campbell Mackenzie
T:6. Robin Sly
T:Harold Boulton 
T:Creative Commons copyright waiver (CC0 1.0 Universal)
T:Creative Commons copyright waiver (CC0 1.0 Universal)
T:Creative Commons copyright waiver (CC0 1.0 Universal)
T:Creative Commons copyright waiver (CC0 1.0 Universal)
T:Creative Commons copyright waiver (CC0 1.0 Universal)
T:Creative Commons copyright waiver (CC0 1.0 Universal)
C:Alexander Campbell Mackenzie
Z:Harold Boulton (also series editor)
Z:Creative Commons copyright waiver (CC0 1.0 Universal)
%%score 1 { 2 | ( 3 4 ) }
L:1/8
Q:1/4=116
M:4/4
K:G
V:1 treble nm="Voice"
V:2 treble nm="Piano"
V:3 bass 
V:4 bass 
V:1
"^Allegretto" z2 | z8 | z8 | z8 | z8 ||!p! D3 D G2 G2 | (AB) c2 B4 | d2 B2 d3 B | G2 A2 B4 | %9
w: |||||In the shade sits|Ro- * bin Sly,|Wait- ing there till|Kate comes by;|
!mf! A2 B2 ^G E3 |!<(! A2 B2!<)! (c4 |!f! D) D3 B3 G | F2 E2 A4 | D3"^stringendo"!<(! E F2 G2 | %14
w: Lov- er’s quar- rel|has been rife,|Ro- bin vows that,|ere it ends,|Kate must kiss and|
 A3!<)! A F4 | z8 | z8 | z8 | z8 | z8 | z8 | z8 | z8 | z8 | z8 | z8 | z8 | %27
w: make a- mends;|||||||||||||
!p!!<(! (E2 D2)!<)!"^ritard.\n" E G3 |!>(! G8-!>)! |"^a tempo" G2 z2 z4 | z8 | z8 | z8 || z8 | z8 | %35
w: Brave * Ro- bin|Sly.|_||||||
 z8 | z8 | z8 | z8 | z8 | z8 | D2"^stringendo" E2 F2 G2 | A3 A F4 | z8 | z8 |!p! d3 d _e3 e | %46
w: ||||||Sing- ing as she|pass- es by,|||“Let him cool a|
 c2 _B2 A4 |!mf! c3 =F d3"^ritard." _B |!>(! A2 G2!>)! !fermata!F4 | z8 | z8 | z8 | z8 | z8 | z8 | %55
w: year or so,|let him cool a|year or so.”|||||||
 z8 | z8 | z8 | z8 | z8 | z8 ||!mf! D3 D G G3 | (AB) c2 B4 | z8 | z8 | z8 | z8 | z8 | z8 | z8 | %70
w: ||||||Joe the hap- piest|hus- * band thrives,||||||||
 z8 | z8 | z8 |!p! d2 d2 _e3 e | c2 _B2 A A3 | z8 | z8 | z8 | z8 | z8 | z8 | z8 | z8 | z8 | z8 | %85
w: |||Learn- ing this was|thy un- do- ing,|||||||||||
 z8 | z8 | z8 | z4 z2 |] %89
w: ||||
V:2
!p! (D2 | B,2 A,2 B,2 E2 | D4- D) z z2 | z8 | z8 || z8 | z8 | z8 | z8 | z8 | z8 | z8 | z8 | z8 | %14
 z8 | z8 | z8 | z8 | z8 | z8 | z8 | z8 | z8 | z8 | z8 | z8 | z8 | z8 | z8 | z8 | z8 | z8 | z8 || %33
 z8 | z8 | z8 | z8 | z8 | z8 | z8 | z8 | z8 | z8 | z8 | z8 | z8 | z8 | z8 | z8 | z8 | z8 | z8 | %52
 z8 | z8 | z8 | z8 | z8 | z8 | z4 z z!p! (.[DG]F |!<(! E2!<)! D2 E2!>(! [CFA]2) | %60
{!fermata!G!fermata!A} !fermata![B,DB]8!>)! || z8 | z8 | z8 | z8 | z8 | z8 | z8 | z8 | z8 | z8 | %71
 z8 | z8 | z8 | z8 | z8 | z8 | z8 | z8 | z8 | z8 | z8 | z8 | z8 | z8 | z8 | z8 | z8 | z4 z2 |] %89
V:3
 z2 | z8 | z8 | z8 | z8 || z8 | z8 | z8 | z8 | z8 | z8 | z8 | z8 | z8 | z8 | z8 | z8 | z8 | z8 | %19
 z8 | z8 | z8 | z8 | z8 | z8 | z8 | z8 | z8 | z8 | z8 | z8 | z8 | z8 || z8 | z8 | z8 | z8 | z8 | %38
 z8 | z8 | z8 | z8 | z8 | z8 | z8 | z8 | z8 | z8 | z8 | z8 | z8 | z8 | z8 | z8 | z8 | z8 | z8 | %57
 z8 | z4 z z ([B,,G,-]2 |"^calando" G,6 [A,,D,]2) | !fermata![G,,D,]8 || z8 | z8 | z8 | z8 | z8 | %66
 z8 | z8 | z8 | z8 | z8 | z8 | z8 | z8 | z8 | z8 | z8 | z8 | z8 | z8 | z8 | z8 | z8 | z8 | z8 | %85
 z8 | z8 | z8 | z4 z2 |] %89
V:4
 x2 | x8 | x8 | x8 | x8 || x8 | x8 | x8 | x8 | x8 | x8 | x8 | x8 | x8 | x8 | x8 | x8 | x8 | x8 | %19
 x8 | x8 | x8 | x8 | x8 | x8 | x8 | x8 | x8 | x8 | x8 | x8 | x8 | x8 || x8 | x8 | x8 | x8 | x8 | %38
 x8 | x8 | x8 | x8 | x8 | x8 | x8 | x8 | x8 | x8 | x8 | x8 | x8 | x8 | x8 | x8 | x8 | x8 | x8 | %57
 x8 | x8 | C,2 B,,2 C,2 x2 | x8 || x8 | x8 | x8 | x8 | x8 | x8 | x8 | x8 | x8 | x8 | x8 | x8 | x8 | %74
 x8 | x8 | x8 | x8 | x8 | x8 | x8 | x8 | x8 | x8 | x8 | x8 | x8 | x8 | x6 |] %89

